Newaita-dark/actions/22/help-about.svg

<?xml version="1.0" encoding="UTF-8"?>
<svg xmlns="http://www.w3.org/2000/svg" xmlns:xlink="http://www.w3.org/1999/xlink" width="22pt" height="22pt" viewBox="0 0 22 22" version="1.1">
<g id="surface1">
<path style=" stroke:none;fill-rule:nonzero;fill:rgb(74.117649%,74.117649%,74.117649%);fill-opacity:1;" d="M 10.914062 1.082031 C 5.371094 1.082031 0.910156 5.542969 0.910156 11.085938 C 0.910156 16.628906 5.371094 21.09375 10.914062 21.09375 C 16.457031 21.09375 20.921875 16.628906 20.921875 11.085938 C 20.921875 5.542969 16.457031 1.082031 10.914062 1.082031 Z M 10.914062 2.445312 C 15.703125 2.445312 19.554688 6.300781 19.554688 11.085938 C 19.554688 15.875 15.703125 19.726562 10.914062 19.726562 C 6.128906 19.726562 2.273438 15.875 2.273438 11.085938 C 2.273438 6.300781 6.128906 2.445312 10.914062 2.445312 Z M 10.914062 2.445312 "/>
<path style=" stroke:none;fill-rule:nonzero;fill:rgb(36.078432%,41.960785%,75.294119%);fill-opacity:1;" d="M 10.914062 9.269531 C 11.417969 9.269531 11.824219 9.675781 11.824219 10.175781 L 11.824219 15.636719 C 11.824219 16.136719 11.417969 16.542969 10.914062 16.542969 C 10.414062 16.542969 10.003906 16.136719 10.003906 15.636719 L 10.003906 10.175781 C 10.003906 9.675781 10.414062 9.269531 10.914062 9.269531 Z M 10.914062 9.269531 "/>
<path style=" stroke:none;fill-rule:nonzero;fill:rgb(36.078432%,41.960785%,75.294119%);fill-opacity:1;" d="M 10.914062 6.085938 C 11.417969 6.085938 11.824219 6.488281 11.824219 6.980469 L 11.824219 7.003906 C 11.824219 7.5 11.417969 7.902344 10.914062 7.902344 C 10.414062 7.902344 10.003906 7.5 10.003906 7.003906 L 10.003906 6.980469 C 10.003906 6.488281 10.414062 6.085938 10.914062 6.085938 Z M 10.914062 6.085938 "/>
</g>
</svg>

<svg xmlns="http://www.w3.org/2000/svg" width="22pt" height="22pt" viewBox="0 0 22 22"><path d="M10.914 1.082A9.981 9.981 0 0 0 .91 11.086a9.984 9.984 0 0 0 10.004 10.008 9.988 9.988 0 0 0 10.008-10.008A9.984 9.984 0 0 0 10.914 1.082zm0 1.363c4.79 0 8.64 3.856 8.64 8.64 0 4.79-3.85 8.642-8.64 8.642a8.621 8.621 0 0 1-8.64-8.641 8.624 8.624 0 0 1 8.64-8.64zm0 0" fill="#bdbdbd"/><path d="M10.914 9.27c.504 0 .91.406.91.906v5.46a.91.91 0 0 1-1.82 0v-5.46c0-.5.41-.906.91-.906zm0 0M10.914 6.086c.504 0 .91.402.91.894v.024a.904.904 0 0 1-.91.898c-.5 0-.91-.402-.91-.898V6.98c0-.492.41-.894.91-.894zm0 0" fill="#5c6bc0"/></svg>
